T: Shoe The Donkey
M: 3/4
L: 1/8
K: Gmaj
|:DG B2 B2|DG B2 B2|DG B2 Bd|cB A4|  DF A2 A2|DF A2 A2|DF A2 Ac|BA G4:||:DG B2 B2|c2 d4|ed c2 B2|A2 A4|  DF A2 A2|B2 c4|ed c2 B2|A2 G4:||:DG|B2 B2 DG|
